X:81
T:Farandoulo dei Grasseto
O:France
A:Provence
C:Maurice Mar?chal
R:Farandole
Z:Transcrit et/ou corrig? par Michel BELLON - 2005-07-27
Z:Pour toute observation mailto:galouvielle@free.fr
M:6/8
Q:3/8=90
K:Fmajor
F2A | c2 c c d c | A2F F2G | A2A A G F | G2z F2A | c2c c d c |
w:L'a de fi-ho que man-jon gai-re per car-ga de blue-jean' es-tr? E soun ta-fa-n?-ri pe- 
A2F f f f | e2c d2=B | c2z A2B [P:REFRIN] || c2c c d e | f3 A A A | B2B G G G |
w:cai-re~! re-ti-po douei v?-no d'a-iet. E pa-mens l'a ren de tant be? cou-me la grais-so, cou-me la 
A2!breath!F F2A | c2c c d e | f3 A A A | B2B G G G | F2z ||
w:grais-so, E pa-mens l'a ren de tant be? cou-me la grais-so sou-to la pe?~!
W:Coublet :
W:L'a de fiho que manjon gaire
W:Per carga de blue-jean' estr?
W:E soun tafan?ri, pecaire !
W:Retipo douei v?no d'aiet.
W:
W:Refrin :
W:E pamens l'a ren de tant be?
W:Coume la graisso, Coume la graisso,
W:E pamens l'a ren de tant be?
W:Coume la graisso souto la pe? !
W:
W:Coublet :
W:Amiras lei grandei ved?to
W:La Lolo, la Sofi?, bada? !
W:T?, se lei vesias en brai?to
W:T'an de cuo? coum? d'apana? !
W:
W:Refrin :
W:O, ti die? l'a ren de tant be?
W:Coume la graisso, Coume la graisso,
W:O, ti die? l'a ren de tant be?
W:Coume la graisso souto la pe? !
W:
W:Coublet :
W:Sougea(s) ben, poulidei fih?to
W:Que per destrauca un mari
W:Tant vau mi?s ques fugu?s grasseto
W:Et nous-pas d'espinarc ouli !
W:
W:Refrin :
W:Car, ves?s, l'a ren de tant be?
W:Coume la graisso, Coume la graisso,
W:Car, ves?s, l'a ren de tant be?
W:Coume la graisso souto la pe? !
W:
(1) Gina Lollobrigida et Sophia Loren, of course !
<end>
<start>
